resources/img/logo-footer.svg

<svg width="95" height="19" viewBox="0 0 95 19" fill="none" xmlns="http://www.w3.org/2000/svg">
<path fill-rule="evenodd" clip-rule="evenodd" d="M0.68 0.719999V18H3.572V10.704H11.756V18H14.636V0.719999H11.756V7.992H3.572V0.719999H0.68ZM19.2483 17.832C19.8963 18.184 20.6883 18.36 21.6243 18.36C22.7923 18.36 23.7643 18.144 24.5403 17.712C25.1435 17.3735 25.6875 16.8881 26.1723 16.256V18H28.7043V10.044C28.7043 9.484 28.6803 8.968 28.6323 8.496C28.5843 8.016 28.4443 7.548 28.2123 7.092C27.7883 6.236 27.1363 5.62 26.2563 5.244C25.3843 4.868 24.3723 4.68 23.2203 4.68C21.6923 4.68 20.4763 5.012 19.5723 5.676C18.6763 6.34 18.0683 7.22 17.7483 8.316L20.3883 9.144C20.6043 8.48 20.9843 8.012 21.5283 7.74C22.0723 7.468 22.6363 7.332 23.2203 7.332C24.1883 7.332 24.8763 7.544 25.2843 7.968C25.624 8.32096 25.8195 8.83746 25.8708 9.5175C25.3461 9.59593 24.8346 9.67143 24.3363 9.744C23.5203 9.856 22.7603 9.98 22.0563 10.116C21.3603 10.252 20.7523 10.404 20.2323 10.572C19.5443 10.804 18.9843 11.104 18.5523 11.472C18.1203 11.832 17.8003 12.264 17.5923 12.768C17.3843 13.264 17.2803 13.824 17.2803 14.448C17.2803 15.16 17.4443 15.812 17.7723 16.404C18.1083 16.996 18.6003 17.472 19.2483 17.832ZM23.8803 15.708C23.4163 15.94 22.8563 16.056 22.2003 16.056C21.7443 16.056 21.3603 15.984 21.0483 15.84C20.7443 15.696 20.5123 15.504 20.3523 15.264C20.1923 15.016 20.1123 14.732 20.1123 14.412C20.1123 14.132 20.1723 13.888 20.2923 13.68C20.4203 13.472 20.6003 13.288 20.8323 13.128C21.0643 12.968 21.3483 12.828 21.6843 12.708C22.0283 12.596 22.4243 12.496 22.8723 12.408C23.3203 12.312 23.8563 12.212 24.4803 12.108C24.8796 12.0415 25.3296 11.9684 25.8304 11.8887C25.8246 12.1092 25.8146 12.3623 25.8003 12.648C25.7843 13.12 25.7003 13.54 25.5483 13.908C25.4523 14.204 25.2643 14.52 24.9843 14.856C24.7123 15.192 24.3443 15.476 23.8803 15.708ZM34.0364 17.472C34.9804 18.064 36.1204 18.36 37.4564 18.36C38.9044 18.36 40.1284 18.008 41.1284 17.304C42.1284 16.592 42.8284 15.576 43.2284 14.256L40.2764 13.596C40.0524 14.26 39.7164 14.768 39.2684 15.12C38.8284 15.472 38.2244 15.648 37.4564 15.648C36.3684 15.648 35.5484 15.268 34.9964 14.508C34.4444 13.748 34.1684 12.752 34.1684 11.52C34.1684 10.728 34.2844 10.02 34.5164 9.396C34.7484 8.772 35.1084 8.284 35.5964 7.932C36.0844 7.572 36.7044 7.392 37.4564 7.392C38.1204 7.392 38.7124 7.588 39.2324 7.98C39.7524 8.364 40.1244 8.904 40.3484 9.6L43.2284 8.82C42.9164 7.54 42.2484 6.532 41.2244 5.796C40.2084 5.052 38.9644 4.68 37.4924 4.68C36.1804 4.68 35.0484 4.976 34.0964 5.568C33.1444 6.152 32.4084 6.96 31.8884 7.992C31.3764 9.016 31.1164 10.192 31.1084 11.52C31.1164 12.824 31.3684 13.992 31.8644 15.024C32.3684 16.056 33.0924 16.872 34.0364 17.472ZM48.5611 0.719999H45.6331L45.6091 18H48.5611V11.76L53.5171 18H57.3451L51.8851 11.52L56.9131 5.04H53.3011L48.5611 11.28V0.719999ZM61.5232 17.58C62.4592 18.1 63.5392 18.36 64.7632 18.36C65.9872 18.36 67.0632 18.1 67.9912 17.58C68.9272 17.052 69.6592 16.32 70.1872 15.384C70.7152 14.448 70.9792 13.368 70.9792 12.144V6.576C70.9792 5.352 70.7152 4.272 70.1872 3.336C69.6592 2.4 68.9272 1.672 67.9912 1.152C67.0632 0.624 65.9872 0.36 64.7632 0.36C63.5392 0.36 62.4592 0.624 61.5232 1.152C60.5872 1.672 59.8552 2.4 59.3272 3.336C58.8072 4.272 58.5472 5.352 58.5472 6.576V12.144C58.5472 13.368 58.8072 14.448 59.3272 15.384C59.8552 16.32 60.5872 17.052 61.5232 17.58ZM66.4192 15.18C65.9232 15.468 65.3712 15.612 64.7632 15.612C64.1552 15.612 63.6032 15.468 63.1072 15.18C63.102 15.1769 63.0969 15.1738 63.0917 15.1707L67.9246 5.50495C67.993 5.77477 68.0272 6.05978 68.0272 6.36V12.348C68.0272 12.956 67.8832 13.508 67.5952 14.004C67.3072 14.492 66.9152 14.884 66.4192 15.18ZM65.714 3.21785L61.4992 11.6475V6.36C61.4992 5.744 61.6432 5.192 61.9312 4.704C62.2192 4.208 62.6112 3.816 63.1072 3.528C63.6032 3.232 64.1552 3.084 64.7632 3.084C65.097 3.084 65.414 3.12862 65.714 3.21785ZM76.9001 5.04H74.3441V18H77.2481V11.412C77.2481 10.916 77.3081 10.456 77.4281 10.032C77.5481 9.6 77.7321 9.216 77.9801 8.88C78.2361 8.544 78.5641 8.268 78.9641 8.052C79.3641 7.812 79.8121 7.672 80.3081 7.632C80.8121 7.592 81.2561 7.628 81.6401 7.74V5.04C81.2561 4.976 80.8601 4.96 80.4521 4.992C80.0441 5.016 79.6441 5.092 79.2521 5.22C78.8681 5.34 78.5161 5.508 78.1961 5.724C77.8201 5.956 77.4961 6.252 77.2241 6.612C77.1056 6.76996 76.9976 6.93598 76.9001 7.11005V5.04ZM84.8733 17.832C85.5213 18.184 86.3133 18.36 87.2493 18.36C88.4173 18.36 89.3893 18.144 90.1653 17.712C90.7685 17.3735 91.3125 16.8881 91.7973 16.256V18H94.3293V10.044C94.3293 9.484 94.3053 8.968 94.2573 8.496C94.2093 8.016 94.0693 7.548 93.8373 7.092C93.4133 6.236 92.7613 5.62 91.8813 5.244C91.0093 4.868 89.9973 4.68 88.8453 4.68C87.3173 4.68 86.1013 5.012 85.1973 5.676C84.3013 6.34 83.6933 7.22 83.3733 8.316L86.0133 9.144C86.2293 8.48 86.6093 8.012 87.1533 7.74C87.6973 7.468 88.2613 7.332 88.8453 7.332C89.8133 7.332 90.5013 7.544 90.9093 7.968C91.249 8.32096 91.4445 8.83746 91.4958 9.5175C90.9712 9.59593 90.4596 9.67143 89.9613 9.744C89.1453 9.856 88.3853 9.98 87.6813 10.116C86.9853 10.252 86.3773 10.404 85.8573 10.572C85.1693 10.804 84.6093 11.104 84.1773 11.472C83.7453 11.832 83.4253 12.264 83.2173 12.768C83.0093 13.264 82.9053 13.824 82.9053 14.448C82.9053 15.16 83.0693 15.812 83.3973 16.404C83.7333 16.996 84.2253 17.472 84.8733 17.832ZM89.5053 15.708C89.0413 15.94 88.4813 16.056 87.8253 16.056C87.3693 16.056 86.9853 15.984 86.6733 15.84C86.3693 15.696 86.1373 15.504 85.9773 15.264C85.8173 15.016 85.7373 14.732 85.7373 14.412C85.7373 14.132 85.7973 13.888 85.9173 13.68C86.0453 13.472 86.2253 13.288 86.4573 13.128C86.6893 12.968 86.9733 12.828 87.3093 12.708C87.6533 12.596 88.0493 12.496 88.4973 12.408C88.9453 12.312 89.4813 12.212 90.1053 12.108C90.5046 12.0415 90.9546 11.9684 91.4554 11.8887C91.4496 12.1092 91.4396 12.3623 91.4253 12.648C91.4093 13.12 91.3253 13.54 91.1733 13.908C91.0773 14.204 90.8893 14.52 90.6093 14.856C90.3373 15.192 89.9693 15.476 89.5053 15.708Z" fill="white"/>
</svg>

<svg width="95" height="19" fill="none" xmlns="http://www.w3.org/2000/svg"><path fill-rule="evenodd" clip-rule="evenodd" d="M.68.72V18h2.892v-7.296h8.184V18h2.88V.72h-2.88v7.272H3.572V.72H.68zm18.568 17.112c.648.352 1.44.528 2.376.528 1.168 0 2.14-.216 2.916-.648.604-.338 1.148-.824 1.632-1.456V18h2.532v-7.956c0-.56-.024-1.076-.072-1.548a3.942 3.942 0 00-.42-1.404 3.77 3.77 0 00-1.956-1.848c-.872-.376-1.884-.564-3.036-.564-1.528 0-2.744.332-3.648.996-.896.664-1.504 1.544-1.824 2.64l2.64.828c.216-.664.596-1.132 1.14-1.404a3.739 3.739 0 011.692-.408c.968 0 1.656.212 2.064.636.34.353.536.87.587 1.55l-1.535.226c-.816.112-1.576.236-2.28.372-.696.136-1.304.288-1.824.456-.688.232-1.248.532-1.68.9-.432.36-.752.792-.96 1.296-.208.496-.312 1.056-.312 1.68 0 .712.164 1.364.492 1.956.336.592.828 1.068 1.476 1.428zm4.632-2.124c-.464.232-1.024.348-1.68.348-.456 0-.84-.072-1.152-.216a1.67 1.67 0 01-.696-.576 1.537 1.537 0 01-.24-.852c0-.28.06-.524.18-.732a1.86 1.86 0 01.54-.552c.232-.16.516-.3.852-.42.344-.112.74-.212 1.188-.3.448-.096.984-.196 1.608-.3.4-.067.85-.14 1.35-.22-.005.221-.015.474-.03.76-.016.472-.1.892-.252 1.26-.096.296-.284.612-.564.948-.272.336-.64.62-1.104.852zm10.156 1.764c.944.592 2.084.888 3.42.888 1.448 0 2.672-.352 3.672-1.056 1-.712 1.7-1.728 2.1-3.048l-2.952-.66c-.224.664-.56 1.172-1.008 1.524-.44.352-1.044.528-1.812.528-1.088 0-1.908-.38-2.46-1.14-.552-.76-.828-1.756-.828-2.988 0-.792.116-1.5.348-2.124.232-.624.592-1.112 1.08-1.464.488-.36 1.108-.54 1.86-.54.664 0 1.256.196 1.776.588.52.384.892.924 1.116 1.62l2.88-.78c-.312-1.28-.98-2.288-2.004-3.024-1.016-.744-2.26-1.116-3.732-1.116-1.312 0-2.444.296-3.396.888a5.886 5.886 0 00-2.208 2.424c-.512 1.024-.772 2.2-.78 3.528.008 1.304.26 2.472.756 3.504a5.912 5.912 0 002.172 2.448zM48.561.72h-2.928L45.61 18h2.952v-6.24L53.517 18h3.828l-5.46-6.48 5.028-6.48h-3.612l-4.74 6.24V.72zm12.962 16.86c.936.52 2.016.78 3.24.78 1.224 0 2.3-.26 3.228-.78a5.68 5.68 0 002.196-2.196c.528-.936.792-2.016.792-3.24V6.576c0-1.224-.264-2.304-.792-3.24a5.597 5.597 0 00-2.196-2.184C67.063.624 65.987.36 64.763.36c-1.224 0-2.304.264-3.24.792a5.597 5.597 0 00-2.196 2.184c-.52.936-.78 2.016-.78 3.24v5.568c0 1.224.26 2.304.78 3.24a5.68 5.68 0 002.196 2.196zm4.896-2.4a3.238 3.238 0 01-1.656.432c-.608 0-1.16-.144-1.656-.432l-.015-.01 4.833-9.665c.068.27.102.555.102.855v5.988c0 .608-.144 1.16-.432 1.656-.288.488-.68.88-1.176 1.176zm-.705-11.962l-4.215 8.43V6.36c0-.616.144-1.168.432-1.656a3.19 3.19 0 011.176-1.176 3.17 3.17 0 011.656-.444c.334 0 .651.045.951.134zM76.9 5.04h-2.556V18h2.904v-6.588c0-.496.06-.956.18-1.38.12-.432.304-.816.552-1.152.256-.336.584-.612.984-.828.4-.24.848-.38 1.344-.42.504-.04.948-.004 1.332.108v-2.7a4.88 4.88 0 00-1.188-.048c-.408.024-.808.1-1.2.228-.384.12-.736.288-1.056.504a3.54 3.54 0 00-.972.888 4.464 4.464 0 00-.324.498V5.04zm7.973 12.792c.648.352 1.44.528 2.376.528 1.168 0 2.14-.216 2.916-.648.603-.338 1.147-.824 1.632-1.456V18h2.532v-7.956c0-.56-.024-1.076-.072-1.548a3.942 3.942 0 00-.42-1.404 3.77 3.77 0 00-1.956-1.848c-.872-.376-1.884-.564-3.036-.564-1.528 0-2.744.332-3.648.996-.896.664-1.504 1.544-1.824 2.64l2.64.828c.216-.664.596-1.132 1.14-1.404a3.739 3.739 0 011.692-.408c.968 0 1.656.212 2.064.636.34.353.535.87.587 1.55l-1.535.226c-.816.112-1.576.236-2.28.372-.696.136-1.304.288-1.824.456-.688.232-1.248.532-1.68.9-.432.36-.752.792-.96 1.296-.208.496-.312 1.056-.312 1.68 0 .712.164 1.364.492 1.956.336.592.828 1.068 1.476 1.428zm4.632-2.124c-.464.232-1.024.348-1.68.348-.456 0-.84-.072-1.152-.216a1.67 1.67 0 01-.696-.576 1.537 1.537 0 01-.24-.852c0-.28.06-.524.18-.732a1.86 1.86 0 01.54-.552c.232-.16.516-.3.852-.42.344-.112.74-.212 1.188-.3.448-.096.984-.196 1.608-.3.4-.067.85-.14 1.35-.22-.005.221-.015.474-.03.76-.016.472-.1.892-.252 1.26-.096.296-.284.612-.564.948-.272.336-.64.62-1.104.852z" fill="#fff"/></svg>
